X:37
T:Heart's Ease
Q:1/4=120
L:1/8
M:6/8
K:Cdor clef=treble
c[||:"Cm"c3/2d/2ed2c|"G"=B2cd2G|"Cm"c2d"Fm"e2f|1"G"(g3g2)c:|2"G"(g3g2)g||
[||:"Bb"def f>gf | "Gm"b2ff2d | "Cm"e2d ef2 | "Eb"(g3g2)g |
"Fm"f2e "Bb"d>ef | "Cm"e2d "Gm"gde | "Fm"d2c "G"=B.AB \
|1 "Cm"(c3c2) g \
:|2 "Cm"(c3c2) c
%Warning : No repeat expected, found :|
:|

